X:36
T:Minstrel Boy
C:(modified for Kentish Guard)
S:CF&D, Vol I, page 10
M:4/4
L:1/8
Q:1/4=90
K:G
%%MIDI channel 1
%%MIDI program 72
%%MIDI transpose 8
%%MIDI grace 1/8
%%MIDI ratio 3 1
|:D2|G3A cB AG|B2 d2 g2 f>g|e2 d2 B>c dB|A4 G2D2|
G3A cB AG|B2 d2 g2 f>g|e2 d2 B>c dB|A4 G2zd|
g2 f2 e2 fg|f2 e2 d2 z^d|e3 B B3 ^d|e3 f gfed|
G3A cB AG|B2 d2 g2 f>g|e2 d2 B>c dB|1 A4 G2:|2 A4 G2|
